icons/line/thumb-down.svg

<svg width="24" height="24" viewBox="0 0 24 24" fill="none" xmlns="http://www.w3.org/2000/svg">
<path d="M16 4H18C19.1046 4 20 4.89543 20 6V12C20 13.1046 19.1046 14 18 14H16M16 4V14M16 4H8C5.79086 4 4 5.79086 4 8V10C4 12.2091 5.79086 14 8 14H9M16 14L10.3673 19.6327C10.1321 19.8679 9.81313 20 9.4805 20V20C8.7055 20 8.11598 19.3041 8.24339 18.5396L9 14M11 14H9" stroke="currentColor" stroke-width="2" stroke-linecap="round" stroke-linejoin="round"/>
</svg>

<svg width="24" height="24" fill="none" xmlns="http://www.w3.org/2000/svg"><path d="M16 4h2a2 2 0 012 2v6a2 2 0 01-2 2h-2m0-10v10m0-10H8a4 4 0 00-4 4v2a4 4 0 004 4h1m7 0l-5.633 5.633A1.254 1.254 0 019.48 20v0a1.254 1.254 0 01-1.237-1.46L9 14m2 0H9" stroke="currentColor" stroke-width="2" stroke-linecap="round" stroke-linejoin="round"/></svg>
